images/account.svg

<svg width="28" height="28" viewBox="0 0 28 28" fill="none" xmlns="http://www.w3.org/2000/svg">
<g clip-path="url(#clip0_9_10639)">
<path d="M14 0C6.26563 0 0 6.26563 0 14C0 21.7031 6.25 28 14 28C21.7656 28 28 21.6875 28 14C28 6.26563 21.7344 0 14 0ZM23.6719 21.1094C23.1094 18.3125 21.75 16 18.8906 16C17.625 17.2344 15.9062 18 14 18C12.0938 18 10.375 17.2344 9.10938 16C6.25 16 4.89062 18.3125 4.32812 21.1094C2.875 19.1094 2 16.6563 2 14C2 7.39063 7.39063 2 14 2C20.6094 2 26 7.39063 26 14C26 16.6563 25.125 19.1094 23.6719 21.1094ZM20 11C20 14.3125 17.3125 17 14 17C10.6875 17 8 14.3125 8 11C8 7.6875 10.6875 5 14 5C17.3125 5 20 7.6875 20 11Z" fill="white"/>
</g>
<defs>
<clipPath id="clip0_9_10639">
<rect width="28" height="28" fill="white"/>
</clipPath>
</defs>
</svg>

<svg width="28" height="28" fill="none" xmlns="http://www.w3.org/2000/svg"><g clip-path="url(#clip0_9_10639)"><path d="M14 0C6.266 0 0 6.266 0 14c0 7.703 6.25 14 14 14 7.766 0 14-6.313 14-14 0-7.734-6.266-14-14-14zm9.672 21.11C23.109 18.312 21.75 16 18.89 16a6.977 6.977 0 01-9.782 0c-2.859 0-4.218 2.313-4.78 5.11A12.062 12.062 0 012 14C2 7.39 7.39 2 14 2s12 5.39 12 12c0 2.656-.875 5.11-2.328 7.11zM20 11c0 3.313-2.688 6-6 6-3.313 0-6-2.688-6-6 0-3.313 2.688-6 6-6 3.313 0 6 2.688 6 6z" fill="#fff"/></g><defs><clipPath id="clip0_9_10639"><path fill="#fff" d="M0 0h28v28H0z"/></clipPath></defs></svg>
